Suru++-Ubuntu/apps/scalable/SweetHome3DIcon.svg

<svg width="256" height="256" version="1.1" viewBox="0 0 256 256" xmlns="http://www.w3.org/2000/svg" xmlns:xlink="http://www.w3.org/1999/xlink">
 <defs>
  <linearGradient id="linearGradient1108" x1="296" x2="296" y1="-212" y2="236" gradientUnits="userSpaceOnUse">
   <stop style="stop-color:#ffffff" offset="0"/>
   <stop style="stop-color:#ffffff;stop-opacity:.09803922" offset=".125"/>
   <stop style="stop-color:#000000;stop-opacity:.09803922" offset=".925"/>
   <stop style="stop-color:#000000;stop-opacity:.49803922" offset="1"/>
  </linearGradient>
  <clipPath id="clipPath1082-3-361">
   <path d="M 361.9375,-212 C 507.2348,-212 528,-191.28677 528,-46.125 V 70.125 C 528,215.28618 507.2348,236 361.9375,236 H 214.0625 C 68.7652,236 48,215.28618 48,70.125 V -46.125 C 48,-191.28677 68.7652,-212 214.0625,-212 Z" style="fill:#8c59d9"/>
  </clipPath>
  <filter id="filter4569" x="-.01" y="-.01" width="1.023" height="1.025" style="color-interpolation-filters:sRGB">
   <feGaussianBlur stdDeviation="1.16"/>
  </filter>
  <filter id="filter939" x="-.02" y="-.03" width="1.046" height="1.05" style="color-interpolation-filters:sRGB">
   <feGaussianBlur stdDeviation="2.32"/>
  </filter>
  <linearGradient id="linearGradient3163" x1="30.739" x2="45.903" y1="35.285" y2="50.736" gradientTransform="matrix(0,1.4314125,-1.4041603,0,74.369993,206.87392)" gradientUnits="userSpaceOnUse">
   <stop style="stop-color:#f0f0f1" offset="0"/>
   <stop style="stop-color:#cdd9cb" offset="1"/>
  </linearGradient>
  <filter id="filter1651" x="-.08" y="-.03" width="1.16" height="1.068" style="color-interpolation-filters:sRGB">
   <feGaussianBlur stdDeviation="2.569"/>
  </filter>
  <filter id="filter1669" x="-.03" y="-.2" width="1.055" height="1.393" style="color-interpolation-filters:sRGB">
   <feGaussianBlur stdDeviation="1.139"/>
  </filter>
 </defs>
 <path transform="matrix(1.019368,0,0,1.019368,-7.2181772e-8,8.3098661)" d="m162.53675 5.5680001c72.64865 0 83.03125 10.356615 83.03125 82.937505v58.125005c0 72.58059-10.3826 82.9375-83.03125 82.9375h-73.937496c-72.648654 0-83.031254-10.35691-83.031254-82.9375v-58.125005c0-72.58089 10.3826-82.937505 83.031254-82.937505z" style="filter:url(#filter939);opacity:.2"/>
 <path d="m165.68477 11.946967c74.05571 0 84.6394 10.557203 84.6394 84.543835v59.250778c0 73.98633-10.58369 84.54383-84.6394 84.54383h-75.369521c-74.055717 0-84.639408-10.5575-84.639408-84.54383v-59.250778c0-73.986632 10.583691-84.543835 84.639408-84.543835z" style="fill:none;opacity:.1;stroke-linecap:round;stroke-linejoin:round;stroke-width:4.0774717;stroke:#000000"/>
 <path transform="matrix(1.019368,0,0,1.019368,-7.2181772e-8,8.3098661)" d="m162.53675 3.5680001c72.64865 0 83.03125 10.356615 83.03125 82.937505v58.125005c0 72.58059-10.3826 82.9375-83.03125 82.9375h-73.937496c-72.648654 0-83.031254-10.35691-83.031254-82.9375v-58.125005c0-72.58089 10.3826-82.937505 83.031254-82.937505z" style="filter:url(#filter4569);opacity:.1"/>
 <path d="m165.68476 11.946967c74.05571 0 84.6394 10.557203 84.6394 84.543835v59.250778c0 73.98633-10.58369 84.54383-84.6394 84.54383h-75.369522c-74.055712 0-84.639403-10.5575-84.639403-84.54383v-59.250778c0-73.986632 10.583691-84.543835 84.639403-84.543835z" style="fill:#d28628"/>
 <path transform="matrix(.50968403 0 0 .50968403 -18.788999 120)" d="M 361.9375,-212 C 507.2348,-212 528,-191.28677 528,-46.125 V 70.125 C 528,215.28618 507.2348,236 361.9375,236 H 214.0625 C 68.7652,236 48,215.28618 48,70.125 V -46.125 C 48,-191.28677 68.7652,-212 214.0625,-212 Z" clip-path="url(#clipPath1082-3-361)" style="fill:none;opacity:.4;stroke-linecap:round;stroke-linejoin:round;stroke-width:8;stroke:url(#linearGradient1108)"/>
 <path d="m129.54217 11.946967v228.33844h37.20966c73.12207 0 83.57233-10.5575 83.57233-84.54383v-59.250778c0-73.986632-10.45026-84.543835-83.57233-84.543835z" style="fill:#ffffff;opacity:.2"/>
 <path d="m90.315238 240.28541c-74.055712 0-84.639403-10.5572-84.639403-84.54383v-29.62537h244.64832v29.62537c0 73.98663-10.58369 84.54383-84.6394 84.54383z" style="fill:#ffffff;opacity:.25"/>
 <path d="m174.95609 209.36683-26.67015-0.0253 3.9e-4 2.57073 22.49508 0.0251c0.032 1.02688 0.0785 1.767 0.26387 2.32538l-77.568501-0.0787-0.01412 8.93378 84.526411 0.0826 0.0109-8.9294-3.16344-6.5e-4c0.14929-0.57547 0.13848-1.33301 0.11687-2.32861zm-82.307452 4.73621-14.648612 4.11616 14.702982 5.03709z" style="fill-rule:evenodd;fill:#090909"/>
 <rect x="17.91" y="52" width="220.179" height="148.227" style="fill:#ffffff;opacity:.67299996"/>
 <g transform="matrix(-6.9041008,0,0,6.9041008,187.40565,-1679.7976)">
  <path d="m24.559175 251.07113-21.242672 21.24413 21.242672-2.7e-4zm-4.233334 9.79018v7.22063l-7.221823-3e-5z" style="fill-rule:evenodd;fill:url(#linearGradient3163);opacity:.6;stroke-width:.26458332px;stroke:#777777"/>
  <path d="m21.384172 272.31495v-1.05878m-3.174999 1.05878v-1.05878m-3.175 1.05878v-1.04618m-3.175001 1.04618v-1.05878m-3.1749997 1.05878v-1.05878" style="fill:none;opacity:.75;stroke-linecap:round;stroke-width:.26458338px;stroke:#777777"/>
  <path d="m24.561492 256.44025h-1.058777m1.058777 3.175h-1.058777m1.058777 3.175h-1.046178m1.046178 3.175h-1.058777m1.058777 3.175h-1.058777" style="fill:none;opacity:.75;stroke-linecap:round;stroke-width:.26458338px;stroke:#777777"/>
 </g>
 <path d="m179.07227 22.095703v20.886719a28.824042 28.824042 0 0 0-19.2168 27.154297 28.824042 28.824042 0 0 0 14.65625 25.070312l-13.86719 51.792969h-10.39648v9.60938h7.82617l-7.76953 28.97265 5.49804 16.51367 12.19727-45.48632h41.3418l12.17773 45.48632 5.49805-16.51367-7.76758-28.97265h7.86328v-9.60938h-10.43555l-13.86718-51.773438a28.824042 28.824042 0 0 0 14.69336-25.089843 28.824042 28.824042 0 0 0-19.21485-27.134766v-20.90625h-19.21679zm9.60742 33.443359a15 15 0 0 1 15 15 15 15 0 0 1-15 15 15 15 0 0 1-15-15 15 15 0 0 1 15-15zm-5.10352 42.933594a28.824042 28.824042 0 0 0 5.10352 0.486328 28.824042 28.824042 0 0 0 5.08593-0.449218l12.98633 48.490234h-36.17968l13.0039-48.527344z" style="filter:url(#filter1651);opacity:.3"/>
 <path d="m179.07227 22.095703v20.886719a28.824042 28.824042 0 0 0-19.2168 27.154297 28.824042 28.824042 0 0 0 14.65625 25.070312l-13.86719 51.792969h-10.39648v9.60938h7.82617l-7.76953 28.97265 5.49804 16.51367 12.19727-45.48632h41.3418l12.17773 45.48632 5.49805-16.51367-7.76758-28.97265h7.86328v-9.60938h-10.43555l-13.86718-51.773438a28.824042 28.824042 0 0 0 14.69336-25.089843 28.824042 28.824042 0 0 0-19.21485-27.134766v-20.90625h-19.21679zm9.60742 33.443359a15 15 0 0 1 15 15 15 15 0 0 1-15 15 15 15 0 0 1-15-15 15 15 0 0 1 15-15zm-5.10352 42.933594a28.824042 28.824042 0 0 0 5.10352 0.486328 28.824042 28.824042 0 0 0 5.08593-0.449218l12.98633 48.490234h-36.17968l13.0039-48.527344z" style="fill:#929292"/>
 <path d="m174.95609 209.36683-26.67015-0.0253 3.9e-4 2.57073 22.49508 0.0251c0.032 1.02688 0.0785 1.767 0.26387 2.32538l-77.568501-0.0787-0.01412 8.93378 84.526411 0.0826 0.0109-8.9294-3.16344-6.5e-4c0.14929-0.57547 0.13848-1.33301 0.11687-2.32861zm-82.307452 4.73621-14.648612 4.11616 14.702982 5.03709z" style="fill-rule:evenodd;fill:#090909;filter:url(#filter1669);opacity:.3"/>
</svg>

<svg xmlns="http://www.w3.org/2000/svg" xmlns:xlink="http://www.w3.org/1999/xlink" width="256" height="256" version="1.1" viewBox="0 0 256 256">
 <defs>
  <linearGradient id="linearGradient1108" x1="296" x2="296" y1="-212" y2="236" gradientUnits="userSpaceOnUse" xlink:href="#linearGradient1013"/>
  <linearGradient id="linearGradient1013">
   <stop style="stop-color:#ffffff" offset="0"/>
   <stop offset=".125" style="stop-color:#ffffff;stop-opacity:0.09803922"/>
   <stop offset=".925" style="stop-color:#000000;stop-opacity:0.09803922"/>
   <stop style="stop-color:#000000;stop-opacity:0.49803922" offset="1"/>
  </linearGradient>
  <clipPath id="clipPath1082-3-361" clipPathUnits="userSpaceOnUse">
   <path style="fill:#8c59d9" d="M 361.9375,-212 C 507.2348,-212 528,-191.28677 528,-46.125 V 70.125 C 528,215.28618 507.2348,236 361.9375,236 H 214.0625 C 68.7652,236 48,215.28618 48,70.125 V -46.125 C 48,-191.28677 68.7652,-212 214.0625,-212 Z"/>
  </clipPath>
  <filter id="filter4569" width="1.023" height="1.025" x="-.01" y="-.01" style="color-interpolation-filters:sRGB">
   <feGaussianBlur stdDeviation="1.16"/>
  </filter>
  <filter id="filter939" width="1.046" height="1.05" x="-.02" y="-.03" style="color-interpolation-filters:sRGB">
   <feGaussianBlur stdDeviation="2.32"/>
  </filter>
  <linearGradient id="linearGradient3163" x1="30.739" x2="45.903" y1="35.285" y2="50.736" gradientTransform="matrix(0,1.4314125,-1.4041603,0,74.369993,206.87392)" gradientUnits="userSpaceOnUse" xlink:href="#linearGradient3412"/>
  <linearGradient id="linearGradient3412">
   <stop style="stop-color:#f0f0f1" offset="0"/>
   <stop style="stop-color:#cdd9cb" offset="1"/>
  </linearGradient>
  <filter id="filter1651" width="1.16" height="1.068" x="-.08" y="-.03" style="color-interpolation-filters:sRGB">
   <feGaussianBlur stdDeviation="2.569"/>
  </filter>
  <filter id="filter1669" width="1.055" height="1.393" x="-.03" y="-.2" style="color-interpolation-filters:sRGB">
   <feGaussianBlur stdDeviation="1.139"/>
  </filter>
 </defs>
 <path d="m 162.53675,5.5680001 c 72.64865,0 83.03125,10.3566149 83.03125,82.9375049 v 58.125005 c 0,72.58059 -10.3826,82.9375 -83.03125,82.9375 H 88.599254 C 15.9506,229.56801 5.568,219.2111 5.568,146.63051 V 88.505505 c 0,-72.58089 10.3826,-82.9375049 83.031254,-82.9375049 z" transform="matrix(1.019368,0,0,1.019368,-7.2181772e-8,8.3098661)" style="opacity:0.2;filter:url(#filter939)"/>
 <path style="opacity:0.1;fill:none;stroke:#000000;stroke-width:4.07747173;stroke-linecap:round;stroke-linejoin:round" d="m 165.68477,11.946967 c 74.05571,0 84.6394,10.557203 84.6394,84.543835 v 59.250778 c 0,73.98633 -10.58369,84.54383 -84.6394,84.54383 H 90.315249 c -74.055717,0 -84.6394076,-10.5575 -84.6394076,-84.54383 V 96.490802 c 0,-73.986632 10.5836906,-84.543835 84.6394076,-84.543835 z"/>
 <path style="opacity:0.1;filter:url(#filter4569)" d="m 162.53675,3.5680001 c 72.64865,0 83.03125,10.3566149 83.03125,82.9375049 v 58.125005 c 0,72.58059 -10.3826,82.9375 -83.03125,82.9375 H 88.599254 C 15.9506,227.56801 5.568,217.2111 5.568,144.63051 V 86.505505 c 0,-72.58089 10.3826,-82.9375049 83.031254,-82.9375049 z" transform="matrix(1.019368,0,0,1.019368,-7.2181772e-8,8.3098661)"/>
 <path d="m 165.68476,11.946967 c 74.05571,0 84.6394,10.557203 84.6394,84.543835 v 59.250778 c 0,73.98633 -10.58369,84.54383 -84.6394,84.54383 H 90.315238 c -74.055712,0 -84.6394026,-10.5575 -84.6394026,-84.54383 V 96.490802 c 0,-73.986632 10.5836906,-84.543835 84.6394026,-84.543835 z" style="fill:#d28628"/>
 <path style="opacity:0.4;fill:none;stroke:url(#linearGradient1108);stroke-width:8;stroke-linecap:round;stroke-linejoin:round" d="M 361.9375,-212 C 507.2348,-212 528,-191.28677 528,-46.125 V 70.125 C 528,215.28618 507.2348,236 361.9375,236 H 214.0625 C 68.7652,236 48,215.28618 48,70.125 V -46.125 C 48,-191.28677 68.7652,-212 214.0625,-212 Z" clip-path="url(#clipPath1082-3-361)" transform="matrix(0.50968403,0,0,0.50968403,-18.788999,120)"/>
 <path d="M 129.54217,11.946967 V 240.28541 h 37.20966 c 73.12207,0 83.57233,-10.5575 83.57233,-84.54383 V 96.490802 c 0,-73.986632 -10.45026,-84.543835 -83.57233,-84.543835 z" style="opacity:0.2;fill:#ffffff"/>
 <path d="m 90.315238,240.28541 c -74.055712,0 -84.6394026,-10.5572 -84.6394026,-84.54383 V 126.11621 H 250.32416 v 29.62537 c 0,73.98663 -10.58369,84.54383 -84.6394,84.54383 z" style="opacity:0.25;fill:#ffffff"/>
 <path d="m 174.95609,209.36683 -26.67015,-0.0253 3.9e-4,2.57073 22.49508,0.0251 c 0.032,1.02688 0.0785,1.767 0.26387,2.32538 l -77.568501,-0.0787 -0.01412,8.93378 84.526411,0.0826 0.0109,-8.9294 -3.16344,-6.5e-4 c 0.14929,-0.57547 0.13848,-1.33301 0.11687,-2.32861 z m -82.307452,4.73621 -14.648612,4.11616 14.702982,5.03709 z" style="fill:#090909;fill-rule:evenodd"/>
 <rect width="220.179" height="148.227" x="17.91" y="52" style="opacity:0.67299996;fill:#ffffff"/>
 <g transform="matrix(-6.9041008,0,0,6.9041008,187.40565,-1679.7976)">
  <path style="opacity:0.6;fill:url(#linearGradient3163);fill-rule:evenodd;stroke:#777777;stroke-width:0.26458332px" d="m 24.559175,251.07113 -21.2426725,21.24413 21.2426725,-2.7e-4 z m -4.233334,9.79018 v 7.22063 l -7.221823,-3e-5 z"/>
  <path style="opacity:0.75;fill:none;stroke:#777777;stroke-width:0.26458338px;stroke-linecap:round" d="m 21.384172,272.31495 v -1.05878 m -3.174999,1.05878 v -1.05878 m -3.175,1.05878 v -1.04618 m -3.175001,1.04618 v -1.05878 m -3.1749997,1.05878 v -1.05878"/>
  <path d="m 24.561492,256.44025 h -1.058777 m 1.058777,3.175 h -1.058777 m 1.058777,3.175 h -1.046178 m 1.046178,3.175 h -1.058777 m 1.058777,3.175 h -1.058777" style="opacity:0.75;fill:none;stroke:#777777;stroke-width:0.26458338px;stroke-linecap:round"/>
 </g>
 <path style="filter:url(#filter1651);opacity:0.3" d="M 179.07227 22.095703 L 179.07227 42.982422 A 28.824042 28.824042 0 0 0 159.85547 70.136719 A 28.824042 28.824042 0 0 0 174.51172 95.207031 L 160.64453 147 L 150.24805 147 L 150.24805 156.60938 L 158.07422 156.60938 L 150.30469 185.58203 L 155.80273 202.0957 L 168 156.60938 L 209.3418 156.60938 L 221.51953 202.0957 L 227.01758 185.58203 L 219.25 156.60938 L 227.11328 156.60938 L 227.11328 147 L 216.67773 147 L 202.81055 95.226562 A 28.824042 28.824042 0 0 0 217.50391 70.136719 A 28.824042 28.824042 0 0 0 198.28906 43.001953 L 198.28906 22.095703 L 179.07227 22.095703 z M 188.67969 55.539062 A 15 15 0 0 1 203.67969 70.539062 A 15 15 0 0 1 188.67969 85.539062 A 15 15 0 0 1 173.67969 70.539062 A 15 15 0 0 1 188.67969 55.539062 z M 183.57617 98.472656 A 28.824042 28.824042 0 0 0 188.67969 98.958984 A 28.824042 28.824042 0 0 0 193.76562 98.509766 L 206.75195 147 L 170.57227 147 L 183.57617 98.472656 z"/>
 <path d="M 179.07227 22.095703 L 179.07227 42.982422 A 28.824042 28.824042 0 0 0 159.85547 70.136719 A 28.824042 28.824042 0 0 0 174.51172 95.207031 L 160.64453 147 L 150.24805 147 L 150.24805 156.60938 L 158.07422 156.60938 L 150.30469 185.58203 L 155.80273 202.0957 L 168 156.60938 L 209.3418 156.60938 L 221.51953 202.0957 L 227.01758 185.58203 L 219.25 156.60938 L 227.11328 156.60938 L 227.11328 147 L 216.67773 147 L 202.81055 95.226562 A 28.824042 28.824042 0 0 0 217.50391 70.136719 A 28.824042 28.824042 0 0 0 198.28906 43.001953 L 198.28906 22.095703 L 179.07227 22.095703 z M 188.67969 55.539062 A 15 15 0 0 1 203.67969 70.539062 A 15 15 0 0 1 188.67969 85.539062 A 15 15 0 0 1 173.67969 70.539062 A 15 15 0 0 1 188.67969 55.539062 z M 183.57617 98.472656 A 28.824042 28.824042 0 0 0 188.67969 98.958984 A 28.824042 28.824042 0 0 0 193.76562 98.509766 L 206.75195 147 L 170.57227 147 L 183.57617 98.472656 z" style="fill:#929292"/>
 <path style="fill:#090909;fill-rule:evenodd;filter:url(#filter1669);opacity:0.3" d="m 174.95609,209.36683 -26.67015,-0.0253 3.9e-4,2.57073 22.49508,0.0251 c 0.032,1.02688 0.0785,1.767 0.26387,2.32538 l -77.568501,-0.0787 -0.01412,8.93378 84.526411,0.0826 0.0109,-8.9294 -3.16344,-6.5e-4 c 0.14929,-0.57547 0.13848,-1.33301 0.11687,-2.32861 z m -82.307452,4.73621 -14.648612,4.11616 14.702982,5.03709 z"/>
</svg>
